X:30
T:La fille du coupeur de paille
O:France
R:Enfants
C:Trad.
Z:Transcrit et/ou corrig? par Michel BELLON - 2005-09-10
Z:Pour toute observation mailto:galouvielle@free.fr
M:2/4
L:1/8
K:C
(3ecd e2 (3|ecd e2|ee/e/ eg|fe ed|(3dBc d2|(3dBc d2|dd/d/ df|ed c2||\
w:Sur mon che-min j'ai ren-con-tr? la fi-le du cou-peur de pail-le Sur mon che-min j'ai ren-con-tr? la fi-le du cou-peur de  bl?\
g2 g2|(3gfe d2|dd/d/ df|ed ec|g2 g2|(3gfe d2|dd/d/ df|edc2|]
w:Oui oui J'ai ren-con-tr? la fil-le du cou-peur de pail-le Oui oui J'ai ren-con-tr? la fil-le du cou-peur de bl?
<end>
<start>
